X: 203
T:bourre de Pontgibaud
M:3/8
L:1/8
Q:80
C:trad
R:Bourre  3 temps
O:France
A:Auvergne
K:F
F/2A/2|ccc|dc d/2e/2|ffc|dc:|
|:F/2A/2|ccc|dc d/2e/2|ffc|dc:|
|:c|cA c|cA c|cA F|GAB|cAF|BGE|F3|F2:||
W:
W: From "Falaleiro" http://home.t-online.de/home/pheld/homepage.htm
